X:47
T:score139
L:1/8
Q:1/4=96
M:4/4
I:linebreak $
K:Gmin
 D=E^F | GABc dg^fg | d4 z dAc |$ B4 z B^FA | G4 z D=E^F | GABc dg=fg |$ d4 z fef | c4 z ede | %8
 B4 z dcd |$ cBAG B3 A | G4 z4 |] %11
